!!!COM: Mozart, Wolfgang Amadeus
!!!OPR: Quartet in E-flat Major
!!!OTL:
!!!OMV: 2
!!!SCT: K 171
!!!SCA: Chronologisch-thematisches Verzeichnis sämtlicher Tonwerke Wolfgang Amade Mozarts (L. von Köchel; 1862, 2/1905, 3/1937, 1947)
!!!YOR: Breitkopf & Härtel Edition
!!!EED: Frances Bennion
!!!ENC: Frances Bennion
!!!CDT: 1756/1/27/-1791/12/5/
!!!OCY: Österreich
!!!YEC: Copyright (c) 1994, 2000 Center for Computer Assisted Research in the Humanities
!!!YEM: Rights to all derivative editions reserved.
!!!YEM: Refer to licensing agreement for further details.
!!!YEN: United States of America
**kern	**kern	**kern	**kern
*k[b-e-a-]	*k[b-e-a-]	*k[b-e-a-]	*k[b-e-a-]
*E-:	*E-:	*E-:	*E-:
*clefG	*clefG	*clefF	*clefC
*M3/4	*M3/4	*M3/4	*M3/4
*tb32	*tb32	*tb32	*tb32
=0-	=0-	=0-	=0-
2r	2r	2r	2r
4b-	4r	4r	4r
=1	=1	=1	=1
8a-	4e-	4B-	4E-
8g	.	.	.
8b-	2r	2r	2r
8b-	.	.	.
8b-	.	.	.
8b-	.	.	.
=2	=2	=2	=2
8g	4B-	4d	4D
8f	.	.	.
8b-	2r	2r	2r
8b-	.	.	.
8b-	.	.	.
8b-	.	.	.
=3	=3	=3	=3
8f	4A	4F	4C
8e-	.	.	.
8g	2r	2r	2r
8g	.	.	.
8g	.	.	.
8e-	.	.	.
=4	=4	=4	=4
8e-	4B-	4F	4BB-
8d	.	.	.
8f	2r	2r	2r
8f	.	.	.
8f	.	.	.
8f	.	.	.
=5	=5	=5	=5
8e	2.r	2.r	2.r
8f	.	.	.
8a-	.	.	.
8a-	.	.	.
8a-	.	.	.
8a-	.	.	.
=6	=6	=6	=6
2.g	2.G	4r	4r
.	.	4e-	4E-
.	.	4d	4D
=7	=7	=7	=7
2.a	2.A	4c	8.C
.	.	.	32D
.	.	.	32E-
.	.	4.c	4F
.	.	.	4E-
.	.	16d	.
.	.	16e-	.
=8	=8	=8	=8
4b-	4B-	2f	4D
4ee-	4e-	.	4AA
4dd	4d	4f	4BB-
=9	=9	=9	=9
4cc	4c	4e-	4E-
4b-	4B-	4d	4F
4a	4A	4c	4FF
=10	=10	=10	=10
2b-	2B-	2B-	2BB-
4ff	4r	4r	4r
=11	=11	=11	=11
8aa-	2.r	2.r	4BB-
8gg	.	.	.
8ee-	.	.	4BB-
8ee-	.	.	.
8ee-	.	.	4BB-
8ee-	.	.	.
=12	=12	=12	=12
8ee-	2r	2.r	4BB-
8dd	.	.	.
8b-	.	.	4BB-
8b-	.	.	.
8b-	4f	.	4BB-
8b-	.	.	.
=13	=13	=13	=13
2ee-	8a-	2.r	4BB-
.	8g	.	.
.	8e-	.	4BB-
.	8e-	.	.
8gg	8e-	.	4BB-
8ff	8e-	.	.
=14	=14	=14	=14
2ff	8e-	2.r	4BB-
.	8d	.	.
.	8B-	.	4BB-
.	8B-	.	.
4ff	8B-	.	4BB-
.	8B-	.	.
=15	=15	=15	=15
8aa-	2e-	[2.b-	4BB-
8gg	.	.	.
8ee-	.	.	4BB-
8ee-	.	.	.
8ee-	8g	.	4BB-
8ee-	8f	.	.
=16	=16	=16	=16
8ee-	4f	2b-]	4BB-
8dd	.	.	.
8b-	4r	.	4BB-
8b-	.	.	.
8b-	4d	8a-	4BB-
8b-	.	8f	.
=17	=17	=17	=17
2ee-	2g	2e-	4C
.	.	.	4C
8cc	8e-	8c	4F
8a	8c	8A	.
=18	=18	=18	=18
4b-	4d	4B-	4BB-
4r	2r	2r	2r
4B-	.	.	.
=19	=19	=19	=19
8B	2.r	2.r	2.r
8c	.	.	.
8A-	.	.	.
8A-	.	.	.
8A-	.	.	.
8A-	.	.	.
=20	=20	=20	=20
8B	2.r	2.r	2.r
8c	.	.	.
8A-	.	.	.
8A-	.	.	.
8A-	.	.	.
8A-	.	.	.
=21	=21	=21	=21
8G	2.r	2.r	2.r
8B-	.	.	.
8e-	.	.	.
8B-	.	.	.
8g	.	.	.
8e-	.	.	.
=22	=22	=22	=22
2.b-	2.B-	4r	4r
.	.	4e-	4G
.	.	4g	4E-
=23	=23	=23	=23
2.cc	2.c	4e-	4A-
.	.	[2a-	4F
.	.	.	4E-
=24	=24	=24	=24
4b-	4B-	8a-]	4D
.	.	8f	.
4aa-	4a-	4d	4BB-
4gg	4g	4e-	4C
=25	=25	=25	=25
4ff	4f	8c	4AA-
.	.	8A-	.
4ee-	4e-	8G	4BB-
.	.	8B-	.
4dd	4d	8A-	4BB-
.	.	8F	.
=26	=26	=26	=26
2ee-	2e-	2E-	2EE-
4e-	4r	4r	4r
=27	=27	=27	=27
8a-	4c	2r	4AA-
8g	.	.	.
8f	4c	.	4AA-
8e-	.	.	.
4e-	4c	4E-	4AA-
=28	=28	=28	=28
2e-	4c	8A-	4AA-
.	.	8G	.
.	4c	8F	4AA-
.	.	8E-	.
4e-	4c	4E-	4AA-
=29	=29	=29	=29
8b-	4d-	2E-	4GG
8g	.	.	.
8f	4d-	.	4GG
8e-	.	.	.
4e-	4d-	4E-	4GG
=30	=30	=30	=30
2e-	4d-	8B-	4GG
.	.	8G	.
.	4d-	8F	4GG
.	.	8E-	.
4e-	4d-	4E-	4GG
=31	=31	=31	=31
2.g-	4c	4E-	4AA-
.	4d-	4B-	4BB-
.	4e-	4A-	4C
=32	=32	=32	=32
2f	4d-	4A-	2D-
.	4A-	[2F	.
4e-	4A	.	4C
=33	=33	=33	=33
4d-	4B-	4F]	2BB-
4f	4d-	4B-	.
4b-	4f	4d-	4D-
=34	=34	=34	=34
4a-	2e-	4c	2E-
4g	.	4B-	.
4r	4r	4ee-	4r
=35	=35	=35	=35
2r	2.r	8ee-	4B-
.	.	8dd-	.
.	.	8b-	4E-
.	.	8g	.
4e-	.	4a-	4c
=36	=36	=36	=36
8e-	2.r	4b-	4G
8d-	.	.	.
8B-	.	4dd-	4E-
8G	.	.	.
4A-	.	4cc	4A-
=37	=37	=37	=37
4B-	2.r	8ee-	4G
.	.	8dd-	.
4d-	.	8b-	4E-
.	.	8g	.
4c	.	4a-	4A-
=38	=38	=38	=38
8e-	2r	4b-	4G
8d-	.	.	.
8B-	.	4dd-	4E-
8G	.	.	.
[4A-	4e-	4cc	4A-
=39	=39	=39	=39
4A-]	4f	2.r	2.D-
4A	8dd-	.	.
.	8cc	.	.
[4B-	8dd-	.	.
.	8b-	.	.
=40	=40	=40	=40
4B-]	4a-	2.r	2.E-
4B	4g	.	.
[4c	8ee-	.	.
.	8cc	.	.
=41	=41	=41	=41
4c]	4b-	2.r	2F
4d-	4a-	.	.
8dd-	8ff	.	4D-
8b-	8dd-	.	.
=42	=42	=42	=42
4a-	4cc	2r	2E-
4g	4b-	.	.
4r	4r	4E-	4r
=43	=43	=43	=43
2r	4c	8A-	4AA-
.	.	8G	.
.	4c	8F	4AA-
.	.	8E-	.
4e-	4c	4E-	4AA-
=44	=44	=44	=44
8a-	4c	2E-	4AA-
8g	.	.	.
8f	4c	.	4AA-
8e-	.	.	.
4e-	4c	4E-	4AA-
=45	=45	=45	=45
2e-	4d-	8B-	4GG
.	.	8G	.
.	4d-	8F	4GG
.	.	8E-	.
4e-	4d-	4E-	4GG
=46	=46	=46	=46
8b-	4d-	2E-	4GG
8g	.	.	.
8f	4d-	.	4GG
8e-	.	.	.
4e-	4d-	4B-	4GG
=47	=47	=47	=47
2.g-	4c	[2.A-	4AA-
.	4d-	.	4BB-
.	4e-	.	4C
=48	=48	=48	=48
4f	4d-	4A-]	4D-
4dd-	4b-	2e-	4GG
4cc	4a-	.	4AA-
=49	=49	=49	=49
4b-	4f	4d-	4D-
4a-	4e-	4c	4E-
4g	4d-	4B-	4EE-
=50	=50	=50	=50
2a-	2c	2A-	2AA-
4r	4r	4r	4r
==	==	==	==
*-	*-	*-	*-
!!!RWG1: This file contains only pitch and duration data.
!!!RWG2: Transposing instruments are not transposed.
!!!RWG3: Spines may have incompatible meters.
!!!RWG4: Durations of rests and tied notes may be interpreted.
!!!RWG: Key is interpreted using the Humdrum key tool.
!!!AFT: stage1
!!!END: 1997/04/15
!!format changes:
!!content changes:
!!public access: complete
!!!KEY: 1792420734
!!!EMD: Converted from MuseData to Humdrum Dec 16, 2000, by Andreas Kornstaedt using muse2kern.
